src/assets/images/rain.svg

<?xml version="1.0" encoding="UTF-8"?>
<svg fill="#ffffff" viewBox="0 0 180 180" xmlns="http://www.w3.org/2000/svg">
<path d="m170.52 62.699c-4.879-4.7904-11.008-7.8494-17.621-8.8622-2.362-15.128-15.481-26.738-31.261-26.738-5.942 0-11.651 1.6429-16.601 4.7134-3.066-5.1328-7.191-9.5642-12.159-13.023-7.0576-4.9138-15.348-7.5108-23.974-7.5108-23.262 0-42.187 18.925-42.187 42.188 0 0.1445 0.0014 0.2883 0.0042 0.431-6.4695 1.0695-12.459 4.1028-17.246 8.8025-6.1116 6.0008-9.4774 13.959-9.4774 22.407 0 8.4484 3.3659 16.407 9.4774 22.407 6.0638 5.955 14.06 9.234 22.515 9.234h8.1682l-5.3114 13.943 9.8557 3.755 6.7419-17.698h20.354l-5.3114 13.943 9.8557 3.755 6.7419-17.698h20.355l-5.3118 13.943 9.8558 3.755 6.742-17.698h20.354l-5.311 13.943 9.856 3.755 6.741-17.698h1.64c8.455 0 16.451-3.279 22.515-9.234 6.111-6 9.477-13.958 9.477-22.407 0-8.4487-3.366-16.406-9.477-22.407zm-22.515 43.501h-116.02c-11.825 0-21.445-9.4627-21.445-21.094 0-11.631 9.6201-21.094 21.445-21.094h6.6203l-0.9447-6.5468c-0.2067-1.4164-0.4022-2.7541-0.4022-4.0001 0-17.447 14.194-31.641 31.641-31.641 13.03 0 24.558 7.8718 29.371 20.054l2.9232 7.4001 5.676-5.5751c3.979-3.9069 9.222-6.0585 14.765-6.0585 11.631 0 21.093 9.4627 21.093 21.094v5.2734h5.274c11.825 0 21.445 9.4627 21.445 21.094 0 11.631-9.62 21.094-21.445 21.094z"/>
<path d="m42.961 164.95 9.0403-23.744 9.8614 3.755-9.0403 23.743-9.8614-3.754z"/>
<path d="m74.602 164.93 9.0403-23.744 9.8613 3.755-9.0403 23.743-9.8613-3.754z"/>
<path d="m106.24 164.92 9.04-23.743 9.861 3.755-9.04 23.743-9.861-3.755z"/>
</svg>

<svg width="180" height="180" viewBox="0 0 180 180" fill="#ffffff" xmlns="http://www.w3.org/2000/svg">
<path d="M170.523 62.6991C165.644 57.9087 159.515 54.8497 152.902 53.8369C150.54 38.7091 137.421 27.0984 121.641 27.0984C115.699 27.0984 109.99 28.7413 105.04 31.8118C101.974 26.679 97.849 22.2476 92.8807 18.7889C85.8231 13.8751 77.5329 11.2781 68.9062 11.2781C45.6441 11.2781 26.7188 30.2034 26.7188 53.4656C26.7188 53.6101 26.7202 53.7539 26.723 53.8966C20.2535 54.9661 14.2636 57.9994 9.47742 62.6991C3.36586 68.6999 0 76.6579 0 85.1062C0 93.5546 3.36586 101.513 9.47742 107.513C15.5412 113.468 23.5371 116.747 31.9922 116.747H40.1604L34.849 130.69L44.7047 134.445L51.4466 116.747H71.801L66.4896 130.69L76.3453 134.445L83.0872 116.747H103.442L98.1302 130.69L107.986 134.445L114.728 116.747H135.082L129.771 130.69L139.627 134.445L146.368 116.747H148.008C156.463 116.747 164.459 113.468 170.523 107.513C176.634 101.513 180 93.555 180 85.1062C180 76.6575 176.634 68.6999 170.523 62.6991ZM148.008 106.2H31.9922C20.167 106.2 10.5469 96.7373 10.5469 85.1062C10.5469 73.4752 20.167 64.0125 31.9922 64.0125H38.6125L37.6678 57.4657C37.4611 56.0493 37.2656 54.7116 37.2656 53.4656C37.2656 36.019 51.4596 21.825 68.9062 21.825C81.9359 21.825 93.4646 29.6968 98.2768 41.8788L101.2 49.2789L106.876 43.7038C110.855 39.7969 116.098 37.6453 121.641 37.6453C133.272 37.6453 142.734 47.108 142.734 58.7391V64.0125H148.008C159.833 64.0125 169.453 73.4752 169.453 85.1062C169.453 96.7373 159.833 106.2 148.008 106.2Z"/>
<path d="M42.9612 164.948L52.0015 141.204L61.8629 144.959L52.8226 168.702L42.9612 164.948Z"/>
<path d="M74.6022 164.932L83.6425 141.188L93.5038 144.943L84.4635 168.686L74.6022 164.932Z"/>
<path d="M106.243 164.915L115.283 141.172L125.144 144.927L116.104 168.67L106.243 164.915Z"/>
</svg>
